_includes/icons/color-trash-can.svg

<svg fill="#666" height="50" viewBox="0 0 48 48" width="50" xmlns="http://www.w3.org/2000/svg"><path d="m11 13v25c0 2.210938 1.789063 4 4 4h16c2.210938 0 4-1.789062 4-4v-25z" fill="#9fa8da"/><g fill="#7986cb"><path d="m22 15h2v23h-2z"/><path d="m28 15h2v23h-2z"/><path d="m16 15h2v23h-2z"/></g><g fill="#5c6bc0"><path d="m11 10h24v4h-24z"/><path d="m9 13h28v4h-28z"/><path d="m19 12v-4h8v4h2v-4c0-1.105469-.894531-2-2-2h-8c-1.105469 0-2 .894531-2 2v4z"/></g></svg>

<svg xmlns="http://www.w3.org/2000/svg" viewBox="0 0 48 48" width="50" height="50" fill="#666"><path d="M 11 13 L 11 38 C 11 40.210938 12.789063 42 15 42 L 31 42 C 33.210938 42 35 40.210938 35 38 L 35 13 Z" fill="#9fa8da"/><path d="M 22 15 L 24 15 L 24 38 L 22 38 Z" fill="#7986cb"/><path d="M 28 15 L 30 15 L 30 38 L 28 38 Z" fill="#7986cb"/><path d="M 16 15 L 18 15 L 18 38 L 16 38 Z" fill="#7986cb"/><path d="M 11 10 L 35 10 L 35 14 L 11 14 Z" fill="#5c6bc0"/><path d="M 9 13 L 37 13 L 37 17 L 9 17 Z" fill="#5c6bc0"/><path d="M 19 12 L 19 8 L 27 8 L 27 12 L 29 12 L 29 8 C 29 6.894531 28.105469 6 27 6 L 19 6 C 17.894531 6 17 6.894531 17 8 L 17 12 Z" fill="#5c6bc0"/></svg>
